**kern	**kern
*part1	*part1
*staff2	*staff1
*I"Piano	*
*clefF4	*clefG2
*k[f#c#g#]	*k[f#c#g#]
=1	=1
(8FF#L	(8AL 8a
8C#	8c#
8F#	8A 8a
8AJ)	8c#J)
=	=
(8BBL	(8dL 8dd
8F#	8f#
8B	8d 8dd
8dJ)	8f#J)
=	=
*^	*
8G#L	4C#	(8c#L 8e#X 8cc#
8E#XJ	.	8g#
4F#	8DL	8B 8f# 8b
.	8D#XJ	8AJ 8a
*v	*v	*
=	=
(8EEL 8BB	8G#L 8g#
8E	8e
8G#	8B 8b
8BJ)	8dnJ) 8e
=	=
*^	*
8AL	(4AA	(8c#L 8cc#
8E	.	8e
8B	4BB	8d 8dd
8EJ	.	8g#J
=	=	=
8c#L	4C#	8eL 8ee
8E	.	8a
8B	4BB)	8d 8dd
8EJ	.	8g#J)
*v	*v	*
=	=
(8AAL 8A	(8c#L 8a 8cc#
8EE 8E	8B 8g# 8b
8FF# 8F#	8A 8f# 8a
8DDJ) 8D	8dJ 8f# 8dd
=	=
(8EEL	8c#L 8a 8cc#
8AA	8e
8E	8B 8g# 8b
8G#J)	8eJ)
=	=
*-	*-
!!!system-decoration: {(s1,s2)}
